src/assets/img/providers-white/irondogslot.svg

<svg width="38" height="40" viewBox="0 0 38 40" fill="none" xmlns="http://www.w3.org/2000/svg">
<g clip-path="url(#clip0_4595_8509)">
<path fill-rule="evenodd" clip-rule="evenodd" d="M4.48099 0.305115V2.73248V14.1919H7.6853V2.73248H8.93662C9.353 2.73248 10.185 2.74045 10.705 3.13583C10.9758 3.34365 11.3502 3.81579 11.3502 4.60655C11.3502 5.29304 11.0591 5.69783 10.8302 5.92666C10.2893 6.46759 9.49855 6.498 8.91562 6.498H8.1741V8.74284L11.9324 14.1739H15.8442L11.579 8.50242C12.3488 8.31487 13.0352 7.90356 13.5139 7.4459C14.4089 6.57187 14.5958 5.49218 14.5958 4.61814C14.5958 3.07862 13.9716 2.05903 13.3886 1.49782C12.7224 0.873615 11.6203 0.270407 9.8512 0.270407H4.48099V0.305115ZM3.51209 14.1919V0.281218H0.307775V14.1919H3.51209ZM33.7869 8.66747V0.274701H36.913V14.1912H34.191L29.6789 9.0252C29.3791 10.2736 28.7447 11.4713 27.723 12.4649C26.4333 13.7133 24.6852 14.504 22.3549 14.504C19.7538 14.504 17.9862 13.4634 16.9456 12.4649C15.6139 11.2164 14.7826 9.34382 14.7826 7.30464C14.7826 5.30674 15.6798 3.28857 16.9282 2.04015C17.8645 1.10384 19.5959 0.000976562 22.3636 0.000976562C24.5281 0.000976562 26.3138 0.701943 27.7418 2.01915C28.471 2.6926 33.7869 8.66747 33.7869 8.66747ZM22.3129 11.5495C23.7279 11.5495 24.7265 11.0296 25.3927 10.3634C25.9336 9.84348 26.5998 8.86516 26.5991 7.26337C26.5991 5.82812 26.0162 4.76654 25.392 4.14233C24.7055 3.47612 23.6026 2.95619 22.3332 2.95619C21.1268 2.95619 20.0442 3.39357 19.2954 4.14233C18.6922 4.72526 18.068 5.74485 18.068 7.28437C18.068 8.55379 18.4844 9.57337 19.3374 10.4054C20.2325 11.2584 21.2311 11.5495 22.3129 11.5495ZM30.55 25.6877V22.936V22.9352H37.8638L37.8645 22.9353V23.0917C37.8645 24.8796 37.2512 27.5951 35.6175 29.2946C33.9839 30.9942 32.1344 31.3034 30.3907 31.3034C30.2767 31.3034 30.1622 31.3022 30.0473 31.2995C28.3801 31.2603 26.6149 30.9029 25.0038 29.2505C24.7744 29.0152 24.5146 28.7156 24.2554 28.348C24.2546 28.3492 24.2537 28.3503 24.2528 28.3514C24.2524 28.352 24.2519 28.3526 24.2514 28.3533L24.2514 28.3523C24.2512 28.3526 24.2509 28.3529 24.2507 28.3533L24.25 28.3402C24.2449 28.3337 24.2406 28.3265 24.2355 28.3192C24.0241 28.6357 23.7938 28.9231 23.5461 29.1628C22.0674 30.5981 20.147 31.3041 17.8515 31.3041C14.9158 31.3041 13.0845 30.1332 12.0902 29.1411C11.8194 28.871 11.5674 28.5763 11.335 28.2613C11.1909 28.4373 11.0395 28.606 10.8795 28.766C8.849 30.8189 6.31016 30.9739 5.07406 30.9739H0.280982V16.2739H4.96471C6.90686 16.2739 8.95979 16.5476 10.7701 18.2913C10.9881 18.5028 11.1923 18.7128 11.382 18.9503L11.3817 18.9506L11.3813 18.9514L11.3806 18.9525L11.382 18.9532L11.4117 19.0053C11.6232 18.6396 11.8498 18.3225 12.091 18.0821C13.0852 17.09 14.9166 15.9191 17.8522 15.9191C20.1477 15.9191 22.0682 16.6258 23.5468 18.0603C23.7945 18.3 24.0241 18.5868 24.2355 18.9032L24.2507 18.8815L24.2514 18.8685C24.2529 18.8706 24.2543 18.8721 24.2558 18.8743C24.515 18.5064 24.775 18.2066 25.0045 17.9713C26.7265 16.2051 28.6245 15.9183 30.3907 15.9183C32.1344 15.9183 34.002 16.2275 35.6356 17.9271C36.1708 18.484 36.5973 19.1502 36.9304 19.8569L34.0657 21.2473C33.7478 20.3645 33.2047 19.8888 33.1055 19.8099C32.7746 19.5231 32.0019 19.0119 30.5449 19.0119C29.4196 19.0119 28.4478 19.2964 27.5651 20.1582C26.4651 21.2321 26.077 22.5645 25.901 23.6116C25.901 23.6116 25.901 23.6116 25.901 23.6116C25.923 23.7426 25.9483 23.878 25.9779 24.0169C26.1851 24.9888 26.6026 26.1275 27.5651 27.0672C27.6753 27.1748 27.787 27.2735 27.9002 27.3638C28.2036 27.6058 28.5179 27.7874 28.8457 27.9195C29.3739 28.1324 29.9369 28.2164 30.5449 28.2164C31.2734 28.2164 31.8308 28.0902 32.2475 27.9282C32.6641 27.7662 32.94 27.5683 33.1055 27.4249C33.1055 27.4249 33.1055 27.4249 33.1055 27.4249C33.2156 27.3366 33.8781 26.7739 34.1649 25.6877L30.55 25.6877L30.55 25.6877ZM9.34031 24.736L9.34037 24.7358C9.3584 24.6832 9.3739 24.6379 9.38703 24.6015C9.43989 24.4523 9.50362 24.2423 9.57748 23.9867C9.55141 23.8368 9.52752 23.6862 9.50724 23.5341C9.2842 21.9895 8.76065 20.941 8.18641 20.3667C7.08282 19.2631 5.6483 19.098 4.61061 19.098H3.68444V28.0774H4.61061C5.31737 28.0774 6.86341 28.0252 7.96555 27.0969C8.76088 26.4274 9.16735 25.2409 9.34031 24.736ZM21.0746 26.9108C21.3259 26.6602 21.5707 26.3416 21.7778 25.9607C21.9689 25.645 22.3346 24.9889 22.5483 24.0866C22.5859 23.928 22.6207 23.7694 22.654 23.6109C22.6207 23.4523 22.5859 23.2937 22.5483 23.1351C22.3346 22.2328 21.9689 21.5768 21.7778 21.261C21.5707 20.8801 21.3259 20.5622 21.0746 20.311C20.3462 19.6042 19.1759 19.0524 17.8298 19.0524C16.5488 19.0524 15.401 19.5166 14.6066 20.311C14.4495 20.463 14.2916 20.6441 14.1417 20.8533L14.1482 20.8548C14.1482 20.8548 13.4647 21.8353 13.0229 23.6116C13.4647 25.3872 14.1482 26.3677 14.1482 26.3677L14.1417 26.3684C14.2916 26.5777 14.4495 26.7587 14.6066 26.9108C15.4017 27.7059 16.5495 28.1693 17.8298 28.1693C19.1759 28.1693 20.3462 27.6168 21.0746 26.9108ZM3.48892 34.5106C3.3984 34.3296 3.24778 34.129 3.09716 34.0088C2.96681 33.9081 2.72567 33.7778 2.34405 33.7778C1.68147 33.7778 1.21947 34.1891 1.21947 34.8118C1.21947 35.0725 1.28971 35.2231 1.47002 35.394C1.6706 35.5946 1.92188 35.7054 2.17243 35.8155L2.81474 36.0965C3.2065 36.2673 3.56785 36.4477 3.84881 36.7286C4.18988 37.0697 4.33037 37.4615 4.33037 37.943C4.33037 39.1777 3.4165 40.001 2.21226 40.001C1.77053 40.001 1.21874 39.9105 0.75674 39.4586C0.425084 39.1371 0.224498 38.6758 0.134705 38.2739L0.857395 38.0734C0.907361 38.4246 1.06812 38.7258 1.25857 38.9264C1.54967 39.2175 1.8806 39.2979 2.2224 39.2979C3.13626 39.2979 3.56785 38.6454 3.56785 37.9727C3.56785 37.6715 3.47733 37.4108 3.23619 37.1899C3.04574 37.0089 2.78433 36.8887 2.43312 36.7279L1.83064 36.4469L1.77558 36.4217C1.52423 36.3066 1.21746 36.1661 0.937051 35.8951C0.645947 35.6142 0.47505 35.3028 0.47505 34.801C0.47505 33.7669 1.26798 33.0746 2.35202 33.0746C2.76333 33.0746 3.09499 33.155 3.42592 33.3759C3.69675 33.5569 3.92775 33.8277 4.07837 34.1188L3.48892 34.5106ZM8.02637 33.8878V39.8808H7.28341V33.8878H5.65699V33.1854H9.65207V33.8878H8.02637ZM12.5037 37.2906C12.5037 37.8525 12.5037 38.4651 13.036 38.917C13.3068 39.148 13.7688 39.2986 14.1403 39.2986C14.5118 39.2986 14.9738 39.148 15.2446 38.917C15.7768 38.4651 15.7768 37.8532 15.7768 37.2906V33.1847H16.5198V37.4911C16.5198 38.0531 16.4597 38.5955 16.0984 39.0973C15.6972 39.6491 14.994 40.001 14.141 40.001C13.288 40.001 12.5848 39.6498 12.1837 39.0973C11.8223 38.5955 11.7622 38.0531 11.7622 37.4911V33.1847H12.5052V37.2906H12.5037ZM19.3497 33.1854H20.7147C21.3875 33.1854 22.3412 33.2557 23.1841 33.9682C23.7967 34.4802 24.3282 35.3332 24.3282 36.5382C24.3282 37.9437 23.6352 38.6961 23.1536 39.1081C22.541 39.6302 21.8987 39.8808 20.7046 39.8808H19.3497V33.1854ZM20.0934 39.1784H20.7452C21.2774 39.1784 22.0102 39.1183 22.6627 38.5759C23.1645 38.1545 23.5664 37.4919 23.5664 36.5382C23.5664 34.932 22.4418 33.8878 20.7459 33.8878H20.0934V39.1784ZM27.5412 33.1854V39.8808H26.7982V33.1854H27.5412ZM30.773 36.5382C30.773 38.0741 31.9874 39.2986 33.4936 39.2986C34.9998 39.2986 36.2142 38.0741 36.2142 36.5382C36.2142 35.0023 34.9998 33.7778 33.4936 33.7778C31.9874 33.7778 30.773 35.0023 30.773 36.5382ZM30.0105 36.5382C30.0105 34.5403 31.5667 33.0746 33.4936 33.0746C35.4206 33.0746 36.9767 34.5403 36.9767 36.5382C36.9767 38.5259 35.4307 40.0017 33.4936 40.0017C31.5565 40.0017 30.0105 38.5259 30.0105 36.5382Z" fill="white"/>
</g>
<defs>
<clipPath id="clip0_4595_8509">
<rect width="37.7276" height="40" fill="white" transform="translate(0.136169 0.000976562)"/>
</clipPath>
</defs>
</svg>

<svg width="38" height="40" fill="none" xmlns="http://www.w3.org/2000/svg"><g clip-path="url(#a)"><path fill-rule="evenodd" clip-rule="evenodd" d="M4.481.305v13.887h3.204V2.732h1.252c.416 0 1.248.008 1.768.404.27.208.645.68.645 1.47 0 .687-.29 1.092-.52 1.32-.54.542-1.331.572-1.914.572h-.742v2.245l3.758 5.43h3.912l-4.265-5.67a4.365 4.365 0 0 0 1.935-1.057c.895-.874 1.082-1.954 1.082-2.828 0-1.54-.624-2.559-1.207-3.12C12.722.874 11.62.27 9.85.27h-5.37v.035Zm-.969 13.887V.282H.308v13.91h3.204Zm30.275-5.525V.275h3.126V14.19h-2.722l-4.512-5.166a7.063 7.063 0 0 1-1.956 3.44c-1.29 1.248-3.038 2.039-5.368 2.039-2.601 0-4.369-1.04-5.41-2.04-1.331-1.248-2.162-3.12-2.162-5.16 0-1.997.897-4.015 2.145-5.264.936-.936 2.668-2.039 5.436-2.039 2.164 0 3.95.7 5.378 2.018.729.674 6.045 6.648 6.045 6.648ZM22.313 11.55c1.415 0 2.414-.52 3.08-1.187.54-.52 1.207-1.498 1.206-3.1 0-1.435-.583-2.496-1.207-3.12-.686-.667-1.79-1.187-3.059-1.187-1.206 0-2.289.438-3.038 1.186-.603.583-1.227 1.603-1.227 3.142 0 1.27.416 2.29 1.27 3.121.895.853 1.893 1.145 2.975 1.145Zm8.237 14.138v-2.752h7.314v.156c0 1.788-.613 4.503-2.246 6.203-1.634 1.7-3.484 2.008-5.227 2.008-.114 0-.229 0-.344-.004-1.667-.039-3.432-.396-5.043-2.049a7.416 7.416 0 0 1-.749-.902l-.002.003-.002.002-.001-.013-.015-.02a5.17 5.17 0 0 1-.689.843c-1.479 1.435-3.399 2.141-5.694 2.141-2.936 0-4.768-1.17-5.762-2.163a7.686 7.686 0 0 1-.755-.88 6.844 6.844 0 0 1-.456.505c-2.03 2.053-4.569 2.208-5.805 2.208H.281v-14.7h4.684c1.942 0 3.995.274 5.805 2.017.218.212.422.422.612.66l-.001.002h.001l.03.052c.211-.365.438-.682.679-.923.994-.992 2.826-2.163 5.761-2.163 2.296 0 4.216.707 5.695 2.141.247.24.477.527.688.843l.016-.021v-.014l.005.006c.259-.368.519-.667.748-.903 1.723-1.766 3.62-2.053 5.387-2.053 1.743 0 3.611.31 5.245 2.01.535.556.961 1.222 1.294 1.929l-2.864 1.39c-.318-.883-.861-1.358-.96-1.437-.331-.287-1.104-.798-2.561-.798-1.125 0-2.097.284-2.98 1.146-1.1 1.074-1.488 2.406-1.664 3.454.022.13.047.266.077.405.207.972.625 2.11 1.587 3.05.11.108.222.206.335.297.304.242.618.423.946.555.528.213 1.09.297 1.699.297.728 0 1.286-.126 1.703-.288.416-.162.692-.36.858-.503.11-.088.772-.651 1.059-1.737H30.55Zm-21.21-.952.047-.134c.053-.15.117-.36.19-.615-.026-.15-.05-.3-.07-.453-.223-1.544-.746-2.593-1.32-3.167-1.104-1.104-2.539-1.269-3.576-1.269h-.927v8.98h.927c.706 0 2.252-.053 3.355-.981.795-.67 1.201-1.856 1.374-2.361Zm11.735 2.175c.25-.25.496-.57.703-.95a6.53 6.53 0 0 0 .77-1.874c.038-.159.073-.318.106-.476a18.865 18.865 0 0 0-.106-.476 6.531 6.531 0 0 0-.77-1.874 4.143 4.143 0 0 0-.703-.95c-.729-.707-1.9-1.259-3.245-1.259-1.281 0-2.429.465-3.223 1.259a3.985 3.985 0 0 0-.465.542l.006.002s-.683.98-1.125 2.757c.442 1.775 1.125 2.756 1.125 2.756h-.006c.15.21.308.39.465.543.795.795 1.942 1.258 3.223 1.258 1.346 0 2.516-.552 3.245-1.258Zm-17.586 7.6a1.609 1.609 0 0 0-.392-.502c-.13-.1-.371-.231-.753-.231-.663 0-1.125.411-1.125 1.034 0 .26.07.411.251.582.2.2.452.311.702.422l.643.28c.392.171.753.352 1.034.633.34.34.481.733.481 1.214 0 1.235-.913 2.058-2.118 2.058-.441 0-.993-.09-1.455-.542-.332-.322-.533-.783-.622-1.185l.722-.2c.05.35.211.652.402.852.29.291.622.372.963.372.914 0 1.346-.653 1.346-1.325a.998.998 0 0 0-.332-.783c-.19-.181-.452-.301-.803-.462l-.602-.281-.055-.025c-.252-.115-.559-.256-.839-.527-.291-.28-.462-.592-.462-1.094 0-1.034.793-1.726 1.877-1.726.411 0 .743.08 1.074.3.27.182.502.453.652.744l-.59.392Zm4.537-.623v5.993h-.743v-5.993H5.657v-.703h3.995v.703H8.026Zm4.478 3.403c0 .562 0 1.174.532 1.626.27.231.733.382 1.104.382.372 0 .834-.151 1.105-.382.532-.452.532-1.064.532-1.626v-4.106h.743v4.306c0 .562-.06 1.105-.422 1.606-.4.552-1.104.904-1.957.904s-1.556-.351-1.957-.904c-.362-.502-.422-1.044-.422-1.606v-4.306h.743v4.106h-.001Zm6.846-4.106h1.365c.672 0 1.626.07 2.47.783.612.512 1.143 1.365 1.143 2.57 0 1.406-.693 2.158-1.174 2.57-.613.522-1.255.773-2.45.773H19.35v-6.696Zm.743 5.993h.652c.532 0 1.265-.06 1.918-.602.502-.422.903-1.084.903-2.038 0-1.606-1.124-2.65-2.82-2.65h-.653v5.29Zm7.448-5.993v6.696h-.743v-6.696h.743Zm3.232 3.353c0 1.536 1.214 2.76 2.72 2.76 1.507 0 2.721-1.224 2.721-2.76 0-1.536-1.214-2.76-2.72-2.76-1.507 0-2.721 1.224-2.721 2.76Zm-.762 0c0-1.998 1.556-3.463 3.483-3.463s3.483 1.465 3.483 3.463c0 1.988-1.546 3.464-3.483 3.464-1.938 0-3.483-1.476-3.483-3.464Z" fill="#fff"/></g><defs><clipPath id="a"><path fill="#fff" transform="translate(.136 .001)" d="M0 0h37.728v40H0z"/></clipPath></defs></svg>
